images/lucy/lucydebugfail.svg

<svg xmlns="http://www.w3.org/2000/svg" width="2821" height="2320" fill="none"><path fill="#ffaff3" stroke="#151515" stroke-width="80" d="M1391.62 307.436c26.29-80.203 130.27-100.947 185.33-36.978l288.6 335.285c35.71 41.487 87.72 65.38 142.47 65.486l442.78.856c84.53.163 136.25 92.473 92.38 164.505l-230.19 377.92a188.193 188.193 0 0 0-18.39 155.67l135.82 420.9c25.87 80.19-45.95 158.07-128.25 138.64l-430.87-101.71a188.627 188.627 0 0 0-153.79 30.68l-358.84 259.27c-68.55 49.53-164.76 5.17-171.64-78.81l-36.1-440.79c-4.47-54.56-32.48-104.45-76.72-136.7l-357.586-260.65c-68.156-49.68-55.824-154.77 22.173-187.36l408.553-170.706c50.52-21.109 89.37-63.13 106.43-115.144l137.84-420.364Z"/><circle cx="1249.43" cy="1279.2" r="78.571" fill="#151515" transform="rotate(-11.283 1249.43 1279.2)"/><circle cx="1879.86" cy="1153.43" r="78.571" fill="#151515" transform="rotate(-11.283 1879.86 1153.43)"/><path stroke="#151515" stroke-linecap="round" stroke-width="80" d="m1539.16 1414.88 123.61-24.66"/><path fill="#FFF2F8" fill-rule="evenodd" d="M1206.16 1532.78c-7.89-33.66-37.92-57.46-72.5-57.46H113.508c-49.069 0-84.724 46.63-71.863 93.99l177.984 655.3c8.809 32.43 38.253 54.94 71.862 54.94H1411.29l-132.43-436.86-72.7-309.91Z" clip-rule="evenodd"/><path fill="#F8B8E6" d="m1411.29 2279.55 252.79-315.24c39.78-48.62 5.19-121.62-57.63-121.62h-327.59l132.43 436.86Z"/><path fill="#151515" d="M1408.1 2279.55v40c11.99 0 23.36-5.38 30.96-14.67l-30.96-25.33Zm-102.48-436.86-38.75 9.93 7.71 30.07h31.04v-40Zm360.41 121.62-30.96-25.33 30.96 25.33Zm-1444.457 260.3-38.602 10.48 38.602-10.48ZM43.59 1569.31l38.601-10.49-38.601 10.49Zm1182.61-36.53-38.94 9.14c.06.26.13.53.19.79l38.75-9.93Zm-79.22-97.46H115.452v80H1146.98v-80ZM4.988 1579.79l177.983 655.3 77.203-20.97-177.983-655.3-77.203 20.97Zm288.447 739.76H1408.1v-80H293.435v80Zm1145.625-14.67 257.92-315.24-61.91-50.66-257.93 315.24 61.92 50.66Zm-94.69-472.12-79.42-309.91-77.5 19.86 79.42 309.91 77.5-19.86Zm264.02-30.07h-302.77v80h302.77v-80Zm88.59 186.95c61.15-74.74 7.98-186.95-88.59-186.95v80c29.08 0 45.09 33.78 26.68 56.29l61.91 50.66ZM182.971 2235.09c13.542 49.86 58.802 84.46 110.464 84.46v-80c-15.556 0-29.183-10.42-33.261-25.43l-77.203 20.97Zm-67.519-799.77c-75.426 0-130.234 71.68-110.464 144.47l77.203-20.97c-5.953-21.92 10.55-43.5 33.261-43.5v-80Zm1031.528 80c20.16 0 37.51 14.78 40.28 26.6l77.88-18.27c-13.02-55.51-69.18-88.33-118.16-88.33v80Z"/></svg>

<svg width="2821" height="2320" viewBox="0 0 2821 2320" fill="none" xmlns="http://www.w3.org/2000/svg">
<path d="M1391.62 307.436C1417.91 227.233 1521.89 206.489 1576.95 270.458L1865.55 605.743C1901.26 647.23 1953.27 671.123 2008.02 671.229L2450.8 672.085C2535.33 672.248 2587.05 764.558 2543.18 836.59L2312.99 1214.51C2284.51 1261.27 2277.8 1318.09 2294.6 1370.18L2430.42 1791.08C2456.29 1871.27 2384.47 1949.15 2302.17 1929.72L1871.3 1828.01C1818.02 1815.43 1761.89 1826.63 1717.51 1858.69L1358.67 2117.96C1290.12 2167.49 1193.91 2123.13 1187.03 2039.15L1150.93 1598.36C1146.46 1543.8 1118.45 1493.91 1074.21 1461.66L716.624 1201.01C648.468 1151.33 660.8 1046.24 738.797 1013.65L1147.35 842.944C1197.87 821.835 1236.72 779.814 1253.78 727.8L1391.62 307.436Z" fill="#ffaff3" stroke="#151515" stroke-width="80"/>
<ellipse cx="1249.43" cy="1279.2" rx="78.5714" ry="78.5714" transform="rotate(-11.283 1249.43 1279.2)" fill="#151515"/>
<ellipse cx="1879.86" cy="1153.43" rx="78.5714" ry="78.5714" transform="rotate(-11.283 1879.86 1153.43)" fill="#151515"/>
<path d="M1539.16 1414.88L1662.77 1390.22" stroke="#151515" stroke-width="80" stroke-linecap="round"/>
<path fill-rule="evenodd" clip-rule="evenodd" d="M1206.16 1532.78C1198.27 1499.12 1168.24 1475.32 1133.66 1475.32H113.508C64.4393 1475.32 28.784 1521.95 41.6453 1569.31L219.629 2224.61C228.438 2257.04 257.882 2279.55 291.491 2279.55L1411.29 2279.55L1278.86 1842.69L1206.16 1532.78Z" fill="#FFF2F8"/>
<path d="M1411.29 2279.55L1664.08 1964.31C1703.86 1915.69 1669.27 1842.69 1606.45 1842.69H1278.86L1411.29 2279.55Z" fill="#F8B8E6"/>
<path d="M1408.1 2279.55V2319.55C1420.09 2319.55 1431.46 2314.17 1439.06 2304.88L1408.1 2279.55ZM1305.62 1842.69L1266.87 1852.62L1274.58 1882.69H1305.62V1842.69ZM1666.03 1964.31L1635.07 1938.98H1635.07L1666.03 1964.31ZM221.573 2224.61L182.971 2235.09L221.573 2224.61ZM43.5897 1569.31L82.1912 1558.82L43.5897 1569.31ZM1226.2 1532.78L1187.26 1541.92C1187.32 1542.18 1187.39 1542.45 1187.45 1542.71L1226.2 1532.78ZM1146.98 1435.32H115.452V1515.32H1146.98V1435.32ZM4.98814 1579.79L182.971 2235.09L260.174 2214.12L82.1912 1558.82L4.98814 1579.79ZM293.435 2319.55H1408.1V2239.55H293.435V2319.55ZM1439.06 2304.88L1696.98 1989.64L1635.07 1938.98L1377.14 2254.22L1439.06 2304.88ZM1344.37 1832.76L1264.95 1522.85L1187.45 1542.71L1266.87 1852.62L1344.37 1832.76ZM1608.39 1802.69H1305.62V1882.69H1608.39V1802.69ZM1696.98 1989.64C1758.13 1914.9 1704.96 1802.69 1608.39 1802.69V1882.69C1637.47 1882.69 1653.48 1916.47 1635.07 1938.98L1696.98 1989.64ZM182.971 2235.09C196.513 2284.95 241.773 2319.55 293.435 2319.55V2239.55C277.879 2239.55 264.252 2229.13 260.174 2214.12L182.971 2235.09ZM115.452 1435.32C40.026 1435.32 -14.7818 1507 4.98814 1579.79L82.1912 1558.82C76.2384 1536.9 92.7412 1515.32 115.452 1515.32V1435.32ZM1146.98 1515.32C1167.14 1515.32 1184.49 1530.1 1187.26 1541.92L1265.14 1523.65C1252.12 1468.14 1195.96 1435.32 1146.98 1435.32V1515.32Z" fill="#151515"/>
</svg>
